!!!OTL: Aililiu na Gamhna, S.35
!!!id: I0501
**kern
*clefG2
*k[b-]
*a:
{8a
=1
8a
4a
8g
=2yy
8e
=3
4d
8d
8d
=4
4e
8g
8g
=5
4g
8g}
=6
{8g
=7
4a
8dd
8dd
=8
4ff
4ee
=9
4dd
8cc
8a
=10
4g
8g}
=11
{8g
=12
8a
8dd
8dd
8dd
=13
4ff
8ee
8ee
=14
8dd
8cc
8a
8cc
=15
8cc
8cc
8ee}
=16
{8ee
=17
8dd
8cc
8a
8g
=18
4e
8d
8d
=19
8d
8a
8a
8a
=20
4a
4a}
=21
{8a
8b-
8a
8g
=22
4e
8d
8d
=23
4e
4g
=24
4g
4g}
=25
{8a
8a
8dd
8dd
=26
4ff
8ee
8ee
=27
8dd
8cc
8a
8a
=28
4g
4g}
=29
{8a
8a
8dd
8dd
=30
4ff
8ee
8ee
=31
8dd
8cc
8a
8cc
=32
8cc
8dd
8ee}
=33
{8ee
=34
8dd
8cc
8a
8g
=35
4e
8d
8d
=36
8d
8d
8a
8a
=37
4a
4a}
==
*-
!!!minrhy: 8
!!!meters: 2/4 ]  ZZ[8
!!!cut: Aililiu na Gamhna, S.35
!!!reg: Irland
!!!trd: O BOYLE, Sean: 25 Irish Folksongs, Dublin 1976
!!!rhy1:   X_XX  X_XX  X_XX  X_X
!!!rhy2: X  X_XX  X_X_  X_XX  X_X
!!!key: I0501  08  A 2/4 ]  ZZ[8
!!!mod: HEPTATONIK PHRYGISCH]  AMBITUS[10b
!!!kad: -7b-7b51-7b-7b51
!!!akz: 1-4-5-7b_16b4-7b_16b43b_4-5-41_1-5-5-7b_16b4-7b_16b43b_4-5-41_
!!!fot: 'a__b__c__d__aw_bw_cv_dv_
!!!for: 'a__b__c__d__e__dv_cv_d__
!!!fok: 'Vd_^__~a_Vd_Vd_^d_~a_Vd_
!! PHRAS[GEMISCHTTAKTIG]
!!!fkt: ???
!! IRISCHE VKL.
!! PR[20] 2K[3] 2G[29] 3K[8] 3G[3] 4A[0] 4Ü[0] 5A[0] 6K[3] 6G[0]
!! 7K[0] 7G[0] 8A[0] MEHR[0] SI[45] ABS[75] SR[32] SP[13]
!! ST[20] 2k[5] 2g[11] 3k[3] 3g[8] 4d[3] 4ü[0] 5d[5] 6k[0] 6g[0]
!! 7k[0] 7g[0] 8d[0] mehr[0] si[35] dm[+10] sr[16] sp[19]
!! 1F[20] 2F[21] 3F[35] 4F[0] LF[0] 2P[15] 3P[9] 4P[0] TRI[0] DF[5] AB[80]
!! TF[0] U3K[0] U3[0] U4[0] U4Ü[0] U5[0] U6K[0] U6[3] U7K[0] U7[0]
!! N1[24] N2K[0] N2[8] N3K[0] N3[16] N4[0] N4Ü[3] N5[16] N6K[0] N6[16]
!!!n7k: 0] N7[11] O1[5] O2K[0] O2[0] O3K[0] O3[0] HÖ[0
